icon/pk/rings.svg

<svg width="48" height="48" fill="none" xmlns="http://www.w3.org/2000/svg"><path d="M13 43c4.42 0 8-3.58 8-8s-3.58-8-8-8-8 3.58-8 8 3.58 8 8 8ZM35 43c4.42 0 8-3.58 8-8s-3.58-8-8-8-8 3.58-8 8 3.58 8 8 8Z" fill="#2F88FF" stroke="#000" stroke-width="4" stroke-miterlimit="2" stroke-linecap="round" stroke-linejoin="round"/><path d="M6 5h36" stroke="#000" stroke-width="4" stroke-miterlimit="2" stroke-linecap="round" stroke-linejoin="round"/><path d="M13 27V5M35 27V5" stroke="#000" stroke-width="4" stroke-miterlimit="2" stroke-linecap="square" stroke-linejoin="round"/><path d="M9 19h8M31 19h8" stroke="#000" stroke-width="4" stroke-miterlimit="2" stroke-linecap="round" stroke-linejoin="round"/></svg>

<svg viewBox="0 0 48 48" fill="none" xmlns="http://www.w3.org/2000/svg" height="1em" width="1em">
  <path d="M13 43C17.42 43 21 39.42 21 35C21 30.58 17.42 27 13 27C8.58 27 5 30.58 5 35C5 39.42 8.58 43 13 43Z" fill="#2F88FF" stroke="black" stroke-width="4" stroke-miterlimit="2" stroke-linecap="round" stroke-linejoin="round"/>
  <path d="M35 43C39.42 43 43 39.42 43 35C43 30.58 39.42 27 35 27C30.58 27 27 30.58 27 35C27 39.42 30.58 43 35 43Z" fill="#2F88FF" stroke="black" stroke-width="4" stroke-miterlimit="2" stroke-linecap="round" stroke-linejoin="round"/>
  <path d="M6 5H42" stroke="black" stroke-width="4" stroke-miterlimit="2" stroke-linecap="round" stroke-linejoin="round"/>
  <path d="M13 27V5" stroke="black" stroke-width="4" stroke-miterlimit="2" stroke-linecap="square" stroke-linejoin="round"/>
  <path d="M35 27V5" stroke="black" stroke-width="4" stroke-miterlimit="2" stroke-linecap="square" stroke-linejoin="round"/>
  <path d="M9 19H17" stroke="black" stroke-width="4" stroke-miterlimit="2" stroke-linecap="round" stroke-linejoin="round"/>
  <path d="M31 19H39" stroke="black" stroke-width="4" stroke-miterlimit="2" stroke-linecap="round" stroke-linejoin="round"/>
</svg>
